Obsidian-SemiLight/actions/16s/edit-select-original.svg

<svg xmlns="http://www.w3.org/2000/svg" viewBox="0 0 16 16">
  <defs id="defs3051">
    <style type="text/css" id="current-color-scheme">
      .ColorScheme-Text {
        color:#4d4d4d;
      }
      .ColorScheme-Highlight {
        color:#3daee9;
      }
      </style>
  </defs>
  <path 
        style="fill:currentColor;fill-opacity:1;stroke:none"
        d="M 5 4 L 5 14 L 7 14 L 7 13 L 6 13 L 6 5 L 12 5 L 12 6 L 13 6 L 13 4 L 11 4 L 5 4 z M 11.003906 7 A 2 2 0 0 0 9.0039062 9 L 9.0039062 11 L 8.0039062 11 L 8.0039062 14 L 14.003906 14 L 14.003906 11 L 13.003906 11 L 13.003906 9 A 2 2 0 0 0 11.003906 7 z M 11.003906 8 A 1 1 0 0 1 12.003906 9 L 12.003906 11 L 10.003906 11 L 10.003906 9 A 1 1 0 0 1 11.003906 8 z "
        class="ColorScheme-Text"
        />
  <path 
        style="fill:currentColor;fill-opacity:1;stroke:none"
        d="m 2,2 0,11 3,0 0,-1 -2,0 0,-9 8,0 0,1 1,0 0,-2 z"
        class="ColorScheme-Highlight"
        />
</svg>

<svg viewBox="0 0 16 16" xmlns="http://www.w3.org/2000/svg"><path d="m5 4v10h2v-1h-1v-8h6v1h1v-2h-2zm6.003906 3a2 2 0 0 0 -1.9999998 2v2h-1v3h5.9999998v-3h-1v-2a2 2 0 0 0 -2-2zm0 1a1 1 0 0 1 1 1v2h-2v-2a1 1 0 0 1 1-1z" fill="#4d4d4d"/><path d="m2 2v11h3v-1h-2v-9h8v1h1v-2z" fill="#3daee9"/></svg>
